X: 7947
T: Condon's Frolics
R: jig
M: 6/8
K: Adorian
|:eAB c2d|edc Bcd|eAB c2d|e2d eag|
eAB c2d|edc Bcd|GBd gdB|1 A3 a2g:|2 A3 AB/c/d||
|:eaa efg|dec BAG|cGe d3|ded efg|
eaa efg|dec BAB|GBd gdB|1 A3 AB/c/d:|2 A3 a2g||

